name_svg/Dominatio.svg

<?xml version="1.0" encoding="UTF-8"?>
<svg id="_레이어_2" data-name="레이어 2" xmlns="http://www.w3.org/2000/svg" viewBox="0 0 1017.38 211.26">
  <g id="kerning">
    <g>
      <path d="M262.83,91.7c-3.14-5.32-8.27-6.54-14.52-3.33l-66.25,45.73v29.96c0,33.18,22.59,47.2,40.48,47.2,0,0,43.66-12.21,43.66-47.56v-55.35c0-7.41-1.22-12.99-3.38-16.64ZM248.32,152.06v18.2c0,26.84-25.62,33.31-25.62,33.31h-2.51c-5.31-.39-20.23-7.36-20.23-42.69v-32.68l32.22-22.22c3.49-1.87,7.33-2.36,10.39-.29,1.26.85,2.39,2.14,3.3,3.95,1.51,2.97,2.44,7.34,2.44,13.49v28.93h0Z"/>
      <g>
        <path d="M522.91,203.57c-14,0-23.36-8.76-23.36-34.8v-99.36h0v-16.25l-46.89,34.68c-1.1.82-.16,2.52,1.13,2.04,3.65-1.39,8.11-4.24,12.81-6.78,6.81-3.67,15.07,1.33,15.07,9.06v78.36c0,21.13-7.28,33.05-18.72,33.05,0,0-4.74-.37-7.42,0-6.39.88-18.66,7.69-7.76,7.69h88.51v-7.69h-13.36Z"/>
        <path d="M477.87,26.99v17.13l20.92-15.34V2.69l-13.69,10.04c-4.54,3.33-7.22,8.62-7.22,14.26Z"/>
      </g>
      <path d="M769.48,203.57c-18.12,0-23.36-8.76-23.36-34.8h-.02v-4.48c0-.2,0-.39,0-.59v-54.72c0-18.19-7.36-25.4-17.89-19.97l-47.57,32.82-18.09,12.24v32.24l18.09-12.48v-25.5l29.64-20.63c7.57-5.27,17.93-4.46,17.93,16.05v13.49s-65.66,45.29-65.66,45.29v10.64c0,9.99,12,18.09,23.91,18.09h22.73c7.21-3.01,13.62-5.96,19.01-9.59h0c0,1.89,4.72,9.59,14.37,9.59h30.09v-7.69h-3.2ZM708.44,203.57h-8.66c-10.56,0-19.13-8.56-19.13-19.13v-8.3l47.57-32.81v26.93c0,26.84-19.78,33.31-19.78,33.31Z"/>
      <path d="M846.59,164.85v5.4c0,23.48-28.27,33.31-28.27,33.31h-.54c-10.77,0-19.75-13.17-19.75-22.52v-98.98l39.45-27.21v-6.07l-39.45,27.22V18.94h0V2.69l-46.89,34.68c-1.1.82-.16,2.52,1.13,2.04,3.65-1.39,8.11-4.24,12.81-6.78,6.81-3.67,15.07,1.33,15.07,9.06v46.64l-17.97,12.39v6.07l17.97-12.39v56.41h.01v30.43c0,16.22,9.19,30.02,24.46,30.02h16.65c22.18-9.25,43.23-22.03,43.23-47.56v-11.19l-17.89,12.34Z"/>
      <g>
        <path d="M928.62,203.57c-14,0-23.36-8.76-23.36-34.8v-99.36h0v-16.25l-46.89,34.68c-1.1.82-.16,2.52,1.13,2.04,3.65-1.39,8.11-4.24,12.81-6.78,6.81-3.67,15.07,1.33,15.07,9.06v78.36c0,21.13-7.28,33.05-18.72,33.05,0,0-4.74-.37-7.42,0-6.39.88-18.66,7.69-7.76,7.69h88.51v-7.69h-13.36Z"/>
        <path d="M883.58,26.99v17.13l20.92-15.34V2.69l-13.69,10.04c-4.54,3.33-7.22,8.62-7.22,14.26Z"/>
      </g>
      <path d="M1014.01,91.7c-3.14-5.32-8.27-6.54-14.52-3.33l-66.25,45.73v29.96c0,33.18,22.59,47.2,40.48,47.2,0,0,43.66-12.21,43.66-47.56v-55.35c0-7.41-1.22-12.99-3.38-16.64ZM999.49,152.06v18.2c0,26.84-25.62,33.31-25.62,33.31h-2.51c-5.31-.39-20.23-7.36-20.23-42.69v-32.68l32.22-22.22c3.49-1.87,7.33-2.36,10.39-.29,1.26.85,2.39,2.14,3.3,3.95,1.51,2.97,2.44,7.34,2.44,13.49v28.93h0Z"/>
      <path d="M161.5,5.09c-3.14-5.32-8.27-6.54-14.52-3.33L.42,102.64c-.94.64-.17,2.1.89,1.68,6.82-2.73,16.59-8.49,26.51-12.07,8.62-3.11,17.68,2.82,18.54,11.69l.07,66.58c0,18.94-9.28,33.05-20.72,33.05,0,0-8.13-.37-10.81,0-6.39.88-18.66,7.69-7.76,7.69h114.99c22.18-9.25,42.75-17.95,42.75-47.56V21.73c0-7.41-1.22-12.99-3.38-16.64ZM146.99,170.26c0,26.84-25.62,33.31-25.62,33.31h-22.45c-.07,0-.13,0-.2,0h0s-9.03,0-9.03,0c-14,0-25.36-10.61-25.36-34.8,0,0,0-90.15,0-103.52l66.51-45.88c3.49-1.87,7.33-2.36,10.39-.29,1.26.85,2.39,2.14,3.3,3.95,1.51,2.97,2.44,7.34,2.44,13.49v133.74Z"/>
      <path d="M630.75,102.71l-44.34,30.59v-42.93s-46.89,34.68-46.89,34.68c-1.1.82-.16,2.52,1.13,2.04,3.65-1.39,8.11-4.24,12.81-6.78,6.81-3.67,15.07,1.33,15.07,9.06l.02,41.15c0,21.13-2.56,31.67-17.4,33.05-6.43.6-18.66,7.69-7.76,7.69h43.03v-58.72h0v-12.75s44.34-30.86,44.34-30.86v102.34h17.89v-120.9l-17.89,12.34Z"/>
      <path d="M417.45,102.71l-40.34,27.83v-40.17l-17.89,12.34-40.34,27.83v-40.17l-46.89,34.68c-1.1.82-.16,2.52,1.13,2.04,3.65-1.39,8.11-4.24,12.81-6.78,6.81-3.67,15.07,1.33,15.07,9.06l.02,41.15c0,21.13-2.56,31.67-17.4,33.05-6.43.6-18.66,7.69-7.76,7.69h43.03s0,0,0,0v-74.26l40.34-28.08v102.34h21.89s-4,0-4,0v-74.26l40.34-28.08v102.34h17.89v-120.9l-17.89,12.34Z"/>
    </g>
  </g>
</svg>

<svg width="1018" height="212" viewBox="0 0 1018 212" fill="none" xmlns="http://www.w3.org/2000/svg">
<g clip-path="url(#clip0_1_46)">
<path d="M262.83 91.7C259.69 86.38 254.56 85.16 248.31 88.37L182.06 134.1V164.06C182.06 197.24 204.65 211.26 222.54 211.26C222.54 211.26 266.2 199.05 266.2 163.7V108.35C266.2 100.94 264.98 95.36 262.82 91.71L262.83 91.7ZM248.32 152.06V170.26C248.32 197.1 222.7 203.57 222.7 203.57H220.19C214.88 203.18 199.96 196.21 199.96 160.88V128.2L232.18 105.98C235.67 104.11 239.51 103.62 242.57 105.69C243.83 106.54 244.96 107.83 245.87 109.64C247.38 112.61 248.31 116.98 248.31 123.13V152.06H248.32Z" fill="white"/>
<path d="M522.91 203.57C508.91 203.57 499.55 194.81 499.55 168.77V69.41V53.16L452.66 87.84C451.56 88.66 452.5 90.36 453.79 89.88C457.44 88.49 461.9 85.64 466.6 83.1C473.41 79.43 481.67 84.43 481.67 92.16V170.52C481.67 191.65 474.39 203.57 462.95 203.57C462.95 203.57 458.21 203.2 455.53 203.57C449.14 204.45 436.87 211.26 447.77 211.26H536.28V203.57H522.92H522.91Z" fill="white"/>
<path d="M477.87 26.99V44.12L498.79 28.78V2.69L485.1 12.73C480.56 16.06 477.88 21.35 477.88 26.99H477.87Z" fill="white"/>
<path d="M769.48 203.57C751.36 203.57 746.12 194.81 746.12 168.77H746.1V164.29C746.1 164.09 746.1 163.9 746.1 163.7V108.98C746.1 90.79 738.74 83.58 728.21 89.01L680.64 121.83L662.55 134.07V166.31L680.64 153.83V128.33L710.28 107.7C717.85 102.43 728.21 103.24 728.21 123.75V137.24L662.55 182.53V193.17C662.55 203.16 674.55 211.26 686.46 211.26H709.19C716.4 208.25 722.81 205.3 728.2 201.67C728.2 203.56 732.92 211.26 742.57 211.26H772.66V203.57H769.46H769.48ZM708.44 203.57H699.78C689.22 203.57 680.65 195.01 680.65 184.44V176.14L728.22 143.33V170.26C728.22 197.1 708.44 203.57 708.44 203.57Z" fill="white"/>
<path d="M846.59 164.85V170.25C846.59 193.73 818.32 203.56 818.32 203.56H817.78C807.01 203.56 798.03 190.39 798.03 181.04V82.06L837.48 54.85V48.78L798.03 76V18.94V2.69L751.14 37.37C750.04 38.19 750.98 39.89 752.27 39.41C755.92 38.02 760.38 35.17 765.08 32.63C771.89 28.96 780.15 33.96 780.15 41.69V88.33L762.18 100.72V106.79L780.15 94.4V150.81H780.16V181.24C780.16 197.46 789.35 211.26 804.62 211.26H821.27C843.45 202.01 864.5 189.23 864.5 163.7V152.51L846.61 164.85H846.59Z" fill="white"/>
<path d="M928.62 203.57C914.62 203.57 905.26 194.81 905.26 168.77V69.41V53.16L858.37 87.84C857.27 88.66 858.21 90.36 859.5 89.88C863.15 88.49 867.61 85.64 872.31 83.1C879.12 79.43 887.38 84.43 887.38 92.16V170.52C887.38 191.65 880.1 203.57 868.66 203.57C868.66 203.57 863.92 203.2 861.24 203.57C854.85 204.45 842.58 211.26 853.48 211.26H941.99V203.57H928.63H928.62Z" fill="white"/>
<path d="M883.58 26.99V44.12L904.5 28.78V2.69L890.81 12.73C886.27 16.06 883.59 21.35 883.59 26.99H883.58Z" fill="white"/>
<path d="M1014.01 91.7C1010.87 86.38 1005.74 85.16 999.49 88.37L933.24 134.1V164.06C933.24 197.24 955.83 211.26 973.72 211.26C973.72 211.26 1017.38 199.05 1017.38 163.7V108.35C1017.38 100.94 1016.16 95.36 1014 91.71L1014.01 91.7ZM999.49 152.06V170.26C999.49 197.1 973.87 203.57 973.87 203.57H971.36C966.05 203.18 951.13 196.21 951.13 160.88V128.2L983.35 105.98C986.84 104.11 990.68 103.62 993.74 105.69C995 106.54 996.13 107.83 997.04 109.64C998.55 112.61 999.48 116.98 999.48 123.13V152.06H999.49Z" fill="white"/>
<path d="M161.5 5.09C158.36 -0.229997 153.23 -1.45 146.98 1.76L0.420005 102.64C-0.519995 103.28 0.250005 104.74 1.31 104.32C8.13 101.59 17.9 95.83 27.82 92.25C36.44 89.14 45.5 95.07 46.36 103.94L46.43 170.52C46.43 189.46 37.15 203.57 25.71 203.57C25.71 203.57 17.58 203.2 14.9 203.57C8.51 204.45 -3.75999 211.26 7.14 211.26H122.13C144.31 202.01 164.88 193.31 164.88 163.7V21.73C164.88 14.32 163.66 8.74 161.5 5.09ZM146.99 170.26C146.99 197.1 121.37 203.57 121.37 203.57H98.92C98.85 203.57 98.79 203.57 98.72 203.57H89.69C75.69 203.57 64.33 192.96 64.33 168.77C64.33 168.77 64.33 78.62 64.33 65.25L130.84 19.37C134.33 17.5 138.17 17.01 141.23 19.08C142.49 19.93 143.62 21.22 144.53 23.03C146.04 26 146.97 30.37 146.97 36.52V170.26H146.99Z" fill="white"/>
<path d="M630.75 102.71L586.41 133.3V90.37L539.52 125.05C538.42 125.87 539.36 127.57 540.65 127.09C544.3 125.7 548.76 122.85 553.46 120.31C560.27 116.64 568.53 121.64 568.53 129.37L568.55 170.52C568.55 191.65 565.99 202.19 551.15 203.57C544.72 204.17 532.49 211.26 543.39 211.26H586.42V152.54V139.79L630.76 108.93V211.27H648.65V90.37L630.76 102.71H630.75Z" fill="white"/>
<path d="M417.45 102.71L377.11 130.54V90.37L359.22 102.71L318.88 130.54V90.37L271.99 125.05C270.89 125.87 271.83 127.57 273.12 127.09C276.77 125.7 281.23 122.85 285.93 120.31C292.74 116.64 301 121.64 301 129.37L301.02 170.52C301.02 191.65 298.46 202.19 283.62 203.57C277.19 204.17 264.96 211.26 275.86 211.26H318.89V137L359.23 108.92V211.26H381.12H377.12V137L417.46 108.92V211.26H435.35V90.36L417.46 102.7L417.45 102.71Z" fill="white"/>
</g>
<defs>
<clipPath id="clip0_1_46">
<rect width="1017.38" height="211.26" fill="white"/>
</clipPath>
</defs>
</svg>
